X:212
T:Silly Doe - Cole
%%VWML:SBG-1-2-100-0
F:http://www.vwml.org/record/SBG/1/2/100
Z:Original Sibelius transcriptions by M. & S. Graebe
M:6/8
I:linebreak $
K:F
V:1 treble nm="P1"
V:1
 F | F2 F A2 c | dcB c2 B | F2 F AGF | F3 C2 C | F2 F A2 B |$ c2 d c2 c | d2 c A2 B | c3- c2 c | %9
w: |||||||||
w: |||||||||
w: |||||||||
w: |||||||||
w: |||||||||
w: |||||||||
 f2 c A2 f | edc BAG |$ A2 F C2 F | F3 B2 c | fed c2 A | F2 A C2 G | (F3 F2) x | %16
w: |||||||
w: |||||||
w: |||||||
w: |||||||
w: |||||||
w: |||||* * bar~of~music~omitted~here~~[C~Sharp's~handwriting.~Ed.] *||
T:Silly Doe - Farmer's daughter
F:http://www.vwml.org/record/SBG/1/2/100
Z:Original Sibelius transcriptions by M. & S. Graebe
M:6/8
I:linebreak $
K:F
V:1 treble nm="P1"
V:1
 c | F2 F G2 A | B2 d c2 c | F2 F G2 A | (B3 B2) c | f2 f e2 d | c2 A F2 G | A2 B A2 G | F3 F2 c |$ %9
 f2 f e2 d | c3 d2 e | f2 f e2 d | (c3 c2) A | F2 F G2 A | B2 c d2 A | F2 A G2 E | (F3 F2) x | %17

